img/icons/electronic/battery-empty.svg

<svg xmlns="http://www.w3.org/2000/svg" viewBox="0 0 48 26"><g data-name="Layer 2"><g data-name="Device / Electronic"><path data-name="Battery Empty" d="M48 8h-4V0H7a7 7 0 00-7 7v12a7 7 0 007 7h37v-8h4zm-6 16H7a5 5 0 01-5-5V7a5 5 0 015-5h35v22zm4-8h-2v-6h2z" fill="#231f20"/></g></g></svg>

<svg xmlns="http://www.w3.org/2000/svg" viewBox="0 0 48 26"><defs><style>.cls-1{fill:#231f20;}</style></defs><title>Battery Empty</title><g id="Layer_2" data-name="Layer 2"><g id="Icons"><g id="Device_Electronic" data-name="Device / Electronic"><path id="Battery_Empty" data-name="Battery Empty" class="cls-1" d="M48,8H44V0H7A7,7,0,0,0,0,7V19a7,7,0,0,0,7,7H44V18h4ZM42,24H7a5,5,0,0,1-5-5V7A5,5,0,0,1,7,2H42V24Zm4-8H44V10h2Z"/></g></g></g></svg>
